src/assets/svg/snowflake.svg

<svg width="16" height="16" viewBox="0 0 16 16" fill="none" xmlns="http://www.w3.org/2000/svg">
<g clip-path="url(#clip0_8_5235)">
<path d="M12.1959 9.88162L11.6482 9.56542L13.1158 9.17219L12.8732 8.26704L10.5005 8.90278L9.38146 8.25667C9.39689 8.17336 9.40538 8.08765 9.40538 7.99997C9.40538 7.91229 9.39692 7.82655 9.38146 7.74327L10.5005 7.09716L12.8732 7.7329L13.1158 6.82775L11.6482 6.43452L12.1959 6.11831L14.546 5.97725L14.8921 4.02063L13.0246 3.34203L11.7274 5.30677L11.1797 5.62297L11.5729 4.15545L10.6678 3.91293L10.032 6.28561L8.91226 6.93211C8.78247 6.82103 8.63242 6.73313 8.4683 6.67494V5.3828L10.2052 3.64586L9.5426 2.98325L8.46827 4.05755V3.42515L9.51792 1.32584L7.99976 0L6.48157 1.3259L7.53122 3.42521V4.05761L6.45689 2.98332L5.79429 3.64592L7.53119 5.38286V6.675C7.36708 6.73319 7.21702 6.82109 7.08724 6.93217L5.96746 6.28568L5.33171 3.91299L4.42656 4.15551L4.81979 5.62304L4.27213 5.30684L2.9749 3.34209L1.10742 4.02069L1.45349 5.97731L3.80362 6.11838L4.35128 6.43458L2.88375 6.82781L3.1263 7.73296L5.49898 7.09722L6.61807 7.74333C6.60264 7.82664 6.59414 7.91235 6.59414 8.00003C6.59414 8.08771 6.60261 8.17345 6.61807 8.25673L5.49898 8.90285L3.1263 8.2671L2.88375 9.17226L4.35128 9.56548L3.80362 9.88169L1.45349 10.0227L1.10742 11.9793L2.97493 12.6579L4.27216 10.6932L4.81985 10.377L4.42662 11.8445L5.33177 12.087L5.96752 9.71435L7.0873 9.06786C7.21708 9.17894 7.36714 9.26684 7.53125 9.32503V10.6172L5.79435 12.3541L6.45696 13.0167L7.53129 11.9424V12.5748L6.48163 14.6741L7.99983 16L9.51802 14.6741L8.46837 12.5748V11.9424L9.5427 13.0167L10.2053 12.3541L8.4684 10.6172V9.32503C8.63251 9.26684 8.78257 9.17894 8.91235 9.06786L10.0321 9.71435L10.6679 12.087L11.573 11.8445L11.1798 10.377L11.7275 10.6932L13.0247 12.6579L14.8922 11.9793L14.5462 10.0227L12.1959 9.88162Z" fill="#FF4646"/>
</g>
<defs>
<clipPath id="clip0_8_5235">
<rect width="16" height="16" fill="white"/>
</clipPath>
</defs>
</svg>

<svg width="16" height="16" fill="none" xmlns="http://www.w3.org/2000/svg"><g clip-path="url(#a)"><path d="m12.196 9.882-.548-.317 1.468-.393-.243-.905-2.372.636-1.12-.646a1.408 1.408 0 0 0 0-.514l1.12-.646 2.372.636.243-.905-1.468-.393.548-.317 2.35-.14.346-1.957-1.867-.679-1.298 1.965-.547.316.393-1.468-.905-.242-.636 2.373-1.12.646a1.405 1.405 0 0 0-.444-.257V5.383l1.737-1.737-.662-.663-1.075 1.075v-.633l1.05-2.1L8 0 6.482 1.326l1.05 2.1v.632L6.456 2.983l-.663.663L7.53 5.383v1.292a1.405 1.405 0 0 0-.444.257l-1.12-.646-.635-2.373-.905.243.393 1.467-.548-.316-1.297-1.965-1.868.679.346 1.956 2.35.141.548.317-1.467.393.242.905L5.5 7.097l1.12.646a1.408 1.408 0 0 0 0 .514l-1.12.646-2.373-.636-.242.905 1.467.393-.547.317-2.35.14-.347 1.957 1.868.679 1.297-1.965.548-.316-.393 1.467.905.243.636-2.373 1.12-.646c.13.11.28.199.443.257v1.292l-1.737 1.737.663.663 1.074-1.075v.633l-1.05 2.1L8 16l1.518-1.326-1.05-2.1v-.632l1.075 1.075.662-.663-1.737-1.737V9.325c.165-.058.315-.146.444-.257l1.12.646.636 2.373.905-.242-.393-1.468.547.316 1.298 1.965 1.867-.679-.346-1.956-2.35-.141Z" fill="#FF4646"/></g><defs><clipPath id="a"><path fill="#fff" d="M0 0h16v16H0z"/></clipPath></defs></svg>
